X: 6904
T: Checkered Blanket
R: jig
M: 6/8
K: Amajor
|:EFA BAF|EFA cAF|EFA dcB|cBA F2E|
EFA BAF|EFA cAF|EFA def|1 ecB AGF:|2 ecB Ace||
|:aga f2e|ecB BAF|aga f2e|ecB Bce|
[1aga f2e|ecB BAF|EFA def|ecB Ace:|
[2aga bge|dcd ecA|EFA def|ecB AGF||

